packages/icons/src/components/Icon/assets/small-outline/play.svg

<svg width="16" height="16" viewBox="0 0 16 16" fill="none" xmlns="http://www.w3.org/2000/svg">
<path fill-rule="evenodd" clip-rule="evenodd" d="M8 2.3125C4.85888 2.3125 2.3125 4.85888 2.3125 8C2.3125 11.1411 4.85888 13.6875 8 13.6875C11.1411 13.6875 13.6875 11.1411 13.6875 8C13.6875 4.85888 11.1411 2.3125 8 2.3125ZM1 8C1 4.13401 4.13401 1 8 1C11.866 1 15 4.13401 15 8C15 11.866 11.866 15 8 15C4.13401 15 1 11.866 1 8ZM7.07031 6.47208V9.52792L9.82057 8L7.07031 6.47208ZM5.75781 5.80599C5.75781 5.10407 6.51187 4.66038 7.12546 5.00127L11.0747 7.19527C11.706 7.54601 11.706 8.45398 11.0747 8.80473L7.12546 10.9987C6.51187 11.3396 5.75781 10.8959 5.75781 10.194V5.80599Z" fill="black"/>
</svg>

<svg xmlns="http://www.w3.org/2000/svg" width="16" height="16" fill="none" viewBox="0 0 16 16">
    <path d="M8 2.313a5.687 5.687 0 1 0 0 11.374A5.687 5.687 0 0 0 8 2.313M1 8a7 7 0 1 1 14 0A7 7 0 0 1 1 8m6.07-1.528v3.056L9.82 8zm-1.312-.666a.92.92 0 0 1 1.367-.805l3.95 2.194a.92.92 0 0 1 0 1.61l-3.95 2.194a.92.92 0 0 1-1.367-.805z" clip-rule="evenodd"/>
</svg>
